X:1
T:James Gibb editions
T:In monte Oliveti - Pacchioni
T:#
%%score [ 1 2 3 4 ]
L:1/8
Q:1/4=96
M:2/2
K:F
V:1 treble nm="Soprano " snm="S"
V:2 treble nm="Alto" snm="A"
V:3 treble-8 nm="Tenor" snm="T"
V:4 bass nm="Bass" snm="B"
V:1
"^Antonio Maria Pacchioni\n(1656-1758)""^In monte Oliveti" B4 d4- | d2 c2 B2 A2 | G4"^," ^F2 F2 | %3
w: In mon\-|* te O- li-|ve- ti o-|
 A4 G2 A2 | (BG c4 =B2) | c4 !fermata!z4 | G4 A4- |"^," A2 A3 A G2 | A4 A2 B2- | BB A2 G4 | A4 z4 | %11
w: ra- vit ad|Pa\- * * *|trem:|Pa- ter,|* si fie- ri|po- test, tran\-|* se- at a|me|
 G2 A2 G4 | A4 A2 B2 | (A2 B4 A2) | !fermata!B8 | z2 B3 B B2 | =B2 c2 A2 B2 | A4 A2 =B2 | c4 A4 | %19
w: ca- lix i-|ste, ca- lix|i\- * *|ste.|Spi- ri- tus|qui- dem prom- ptus|est, ca- ro|au- tem|
 G2 (A4 G2) |"^," A8 | F4 A4 | G2 c4 B2 | (_A2 G4 ^F2) | !fermata!G8 | =B6 c2 | A4"^," G2 c2- | %27
w: in- fir\- *|ma,|ca- ro|au- tem in-|fir\- * *|ma.|Vi- gi-|la- te et|
 c2 c2 !courtesy!_B4 | A2 A2 A3 B | G6 ^F2 | z4[Q:1/4=95] A2[Q:1/4=93] B2 | %31
w: * o- ra-|te ut non in-|tre- tis|in tem-|
[Q:1/4=91] c2[Q:1/4=89] d2[Q:1/4=87] (c2[Q:1/4=86] B2- | %32
w: pta- ti- o\- *|
[Q:1/4=84] B2[Q:1/4=82] A2)[Q:1/4=82] !fermata!B4 |] %33
w: * * nem.|
V:2
 G4 F4 | F4 B,C (D2- | DC/B,/ C2) D4 | z2 C2 _E4 | D2 _E2 G4 | G4 !fermata!z4 | E4 F4- | %7
w: In mon-|te O- li- ve\-|* * * * ti|o- ra-|vit ad Pa-|trem:|Pa- ter,|
"^," F2 F3 F D2 | E4 ^F2 G2- | GG !courtesy!=F4 E2 |"^," F4 E2 F2 | (E2 F4 E2) | F2 (F4 E2 | F8) | %14
w: * si fie- ri|po- test, tran\-|* se- at a|me ca- lix|i\- * *|ste, i\- *||
 !fermata!F8 | z2 F3 F G2 | G2 G2 ^F2 G2 | ^F4 F2 G2 | G4 =F4 | z4 D4 | F4 E4 | z4 C4 | %22
w: ste.|Spi- ri- tus|qui- dem prom- ptus|est, ca- ro|au- tem|in-|fir- ma,|ca-|
 _E4 A,2 B,2 | _E4 D4 | !fermata!D8 | G6 G2 | F4"^," E2 G2- | G2 A2 F4 | F2 F2 FF (D2- | %29
w: ro au- tem|in- fir-|ma.|Vi- gi-|la- te et|* o- ra-|te ut non in- tre\-|
 D2 C2)"^," D4 | A2 G2 F2 D2 | F8- | F4 !fermata!F4 |] %33
w: * * tis|in tem- pta- ti-|o\-|* nem.|
V:3
 d8 | B2 c2 d2 d2 | G4 A4 | z2 A2 c4 | B2 c2 d4 | !courtesy!=e4 !fermata!z4 | c4"^," c4 | %7
w: In|mon- te O- li-|ve- ti|o- ra-|vit ad Pa|trem:|Pa- ter,|
 d2 d3 d (d2- | d ^c/=B/ c2) d2 d2- | dd d2 B4 |"^," c2 c4 =B2 | c8 | c4 z4 | c2 d2 c4 | %14
w: si fie- ri po\-|* * * * test, tran\-|* se- at a|me ca- lix|i-|ste,|ca- lix i-|
 !fermata!d8 | z2 d3 d _e2 | d2 _e2 d2 d2 | d4 d2 d2 | !courtesy!=e4 c2 c2 | d8- | d4"^," ^c2 A2- | %21
w: ste.|Spi- ri- tus|qui- dem prom- ptus|est, ca- ro|au- tem in-|fir\-|* ma, ca\-|
 A2 B2 A2 (c2- | cBAG) d4 | (c3 B A4) | !fermata!G8 | d6 G2 | c4"^," c2 e2- | e2 f2 d4 | %28
w: * ro au- tem|* * * * in-|fir\- * *|ma.|Vi- gi-|la- te et|* o- ra-|
 c2 c2 c3 B | (B2 AG B2) A2 | z8 | A2 B2 c2 d2 | c4 !fermata!d4 |] %33
w: te ut non in-|tre\- * * * tis||in tem- pta- ti-|o- nem.|
V:4
 G,4 B,4- | B,2 A,2 G,2 F,2 | _E,4"^," D,2 D,2 | F,4 _E,2 F,2 | G,8 | C,4 !fermata!z4 | %6
w: In mon\-|* te O- li-|ve- ti o-|ra- vit ad|Pa-|trem:|
 C,4"^," F,4 | D,2 D,3 D, (B,,2- | A,,4) D,2 G,2- | G,G, D,2 G,4 |"^," F,4 C,2 D,2 | C,8 | %12
w: Pa- ter,|si fie- ri po\-|* test, tran\-|* se- at a|me ca- lix|i-|
 F,,4 F,2 G,2 | F,8 | !fermata!B,,8 | z2 B,3 B, _E,2 | G,2 C,2 D,2 G,,2 | D,4 D,2 G,2 | %18
w: ste, ca- lix|i-|ste.|Spi- ri- tus|qui- dem prom- ptus|est, ca- ro|
 C,4 F,2 A,2 | B,8 |"^," A,8 | D,4 F,4 | _E,4 D,2 G,2 | (C,4 D,4) | !fermata!G,,8 | G,6 E,2 | %26
w: au- tem in-|fir-|ma,|ca- ro|au- tem in-|fir\- *|ma.|Vi- gi-|
 F,4"^," C,2 C,2- | C,2 A,,2 B,,4 | F,,2 F,2 F,3 G, | _E,4"^," D,4 | D,2 !courtesy!=E,2 F,2 G,2 | %31
w: la- te et|* o- ra-|te ut non in-|tre- tis|in tem- pta- ti-|
 F,8- | F,4 !fermata!B,,4 |] %33
w: o\-|* nem.|

